!!!COM: Gomółka, Mikołaj
!!!CDT: ~1535-after 1591
!!!OTL@POL: Mój wiekuisty Pasterz
!!!OTL@LAT: Dominus regit me
!!!AGn: Motet; Psalm
!!!SCn: Gom2023
!!!SCn: Gom2023
!!!voices: 4
**kern	**kern	**kern	**kern
*staff4	*staff3	*staff2	*staff1
*Ivox	*Ivox	*Ivox	*Ivox
*I"Bassus	*I"Tenor	*I"Altus	*I"Cantus
*I'B	*I'T	*I'A	*I'C
*clefF4	*clefGv2	*clefGv2	*clefG2
*k[b-]	*k[b-]	*k[b-]	*k[b-]
*M2/1	*M2/1	*M2/1	*M2/1
*met(C|)	*met(C|)	*met(C|)	*met(C|)
=1-	=1-	=1-	=1-
1r	1r	1r	1r
2r	2r	2r	2r
2G	2B-	2d	2b-
=2	=2	=2	=2
2F	2c	2f	2a
2E-	2c	4g	2g
.	.	4a	.
1D	2.d	2.b-	2.f
.	4c	4a	4e-i
=3	=3	=3	=3
2D	2B-	2f	2d
2D	2f	4b-	2dd
.	.	4a	.
2E-	2.e-	4g	2cc
.	.	4f	.
2E-	.	2g	[2b-
.	4d	.	.
=4	=4	=4	=4
1F	4c	2.f	2b-]
.	4B-	.	.
.	2c	.	2a
.	.	4e-i	.
1BB-	1B-	1d	1b-
=5:|!	=5:|!	=5:|!	=5:|!
2r	2r	2r	2r
2D	2B-	2f	2f
2E-	2B-	2e-	2g
2F	2A	2c	2a
=6	=6	=6	=6
2.BB-	1d	2.f	2.b-
4C	.	4e-i	4a
2D	2d	4d	2f
.	.	4c	.
2B-	2d	2B-	2g
=7	=7	=7	=7
2B-	2d	2B-	2f
2A	1c	2c	1f
1G	.	2d	.
.	2B-	2G	2e
=8	=8	=8	=8
2F	2c	2A	2f
2F	2f	2c	2a
2.B-	4d	4B-	2.dd
.	4e-i	4c	.
.	2f	2d	.
4A	.	.	4cc
=9	=9	=9	=9
2G	1B-	4d	2b-
.	.	4c	.
2G	.	4d	4a
.	.	4e	4g
2F	4c	2f	4a
.	4d	.	4b-
2E-i	2e-	2g	[2cc
=10	=10	=10	=10
2F	2d	2f	4cc]
.	.	.	4b-
2G	4c	2e-	1b-
.	4B-	.	.
1F	1c	2.f	.
.	.	.	2a
.	.	4e-	.
=11	=11	=11	=11
0BB-	0B-	0d	0b-
==	==	==	==
*-	*-	*-	*-
!!!CNT: Polish
!!!OCY: Poland
!!!LYR: Jan Kochanowski (1530-1584/08/22)
!!!GTL: Melodiae na Psałterz Polski
!!!EFL: 23/150
!!!PPR: Łazarz Andrysowicz
!!!PPP: Kraków
!!!PDT: 1580
!!!YEC: 2015 Marcin Konik
!!!ENC: Marcin Konik
!!!END: 2015/05/19
!!!EED: Marcin Konik
!!!EEV: 2015/05/19
!!!ONB: Translated from MusicXML and edited on 2015/03/06 by Marcin Konik
!!!CharacterEncoding: utf-8
!!muse2ps: i2I150v85,85,85,150Q16
!!title: @{OTL}, @{GTL}, ed. @{ENC}
